src/assets/images/prototype/main-image/4-lave-vaisselle.svg

<svg width="545" height="610" fill="none" xmlns="http://www.w3.org/2000/svg"><rect x="48" y="3" width="450" height="451" rx="5" fill="#fff" stroke="#D9D9D9" stroke-width="5" stroke-linejoin="round"/><path d="M477 23H71a5 5 0 00-5 5v418a5 5 0 005 5h406a5 5 0 005-5V28a5 5 0 00-5-5z" fill="#fff" stroke="#D9D9D9" stroke-width="5" stroke-linejoin="round"/><path d="M479.972 377.65l-57.099-27.602a2 2 0 00-2.87 1.8v8.362a2 2 0 001.129 1.8l57.099 27.602c1.328.642 2.871-.325 2.871-1.8v-8.362a2 2 0 00-1.13-1.8zM66.24 371.686l58.098-23.891a2 2 0 012.761 1.85v8.479a2 2 0 01-1.24 1.85l-58.098 23.891a2 2 0 01-2.761-1.85v-8.479a2 2 0 011.24-1.85z" fill="#fff" stroke="#D9D9D9" stroke-width="5" stroke-linejoin="round"/><path fill-rule="evenodd" clip-rule="evenodd" d="M118.733 410.818c-4.966 0-6.895-6.456-2.743-9.18l13.695-8.987a4.997 4.997 0 012.743-.82h281.069c.989 0 1.956.293 2.778.843l12.943 8.651.347.209c4.343 2.612 2.491 9.284-2.577 9.284H118.733zm11.91-11.451a4.997 4.997 0 013.035-1.026h277.883c.883 0 1.751.234 2.515.679l4.425 2.576.139.095c4.058 2.776 2.094 9.127-2.823 9.127H130.406c-4.938 0-6.781-6.469-2.681-9.222l2.918-2.229z" fill="#fff"/><path d="M429.218 401.325l-1.389 2.078.1.064 1.289-2.142zm-10.717.271l1.411-2.064a3.036 3.036 0 00-.153-.097l-1.258 2.161zm.139.095l1.412-2.063-1.412 2.063zm10.925-.157l-1.288 2.142 1.288-2.142zm-13.29-8.86l1.389-2.078-1.389 2.078zm-286.59-.023l1.372 2.09-1.372-2.09zm-1.372-2.09l-13.695 8.987 2.743 4.18 13.696-8.987-2.744-4.18zm285.184-1.23H132.428v5h281.069v-5zm17.11 9.915l-12.943-8.65-2.778 4.157 12.943 8.65 2.778-4.157zm.247.145l-.348-.209-2.577 4.285.348.209 2.577-4.285zm-312.121 13.927h308.255v-5H118.733v5zm292.828-17.477H133.678v5h277.883v-5zm8.198 3.594l-4.425-2.576-2.516 4.321 4.425 2.576 2.516-4.321zm.293.193l-.14-.096-2.823 4.127.14.096 2.823-4.127zm-289.646 13.69h285.411v-5H130.406v5zm-1.281-15.938l-2.918 2.229 3.035 3.974 2.918-2.229-3.035-3.974zm1.281 10.938c-2.298 0-3.48-3.174-1.288-4.647l-2.787-4.151c-6.006 4.034-3.504 13.798 4.075 13.798v-5zm286.823-4.563c2.029 1.388 1.046 4.563-1.412 4.563v5c7.375 0 10.321-9.527 4.235-13.69l-2.823 4.127zm-283.551-7.914a7.505 7.505 0 00-4.553 1.539l3.035 3.974a2.5 2.5 0 011.518-.513v-5zm294.599 7.835c2.171 1.306 1.245 4.642-1.289 4.642v5c7.602 0 10.38-10.008 3.866-13.927l-2.577 4.285zm-14.78-9.345a2.5 2.5 0 011.389.422l2.778-4.157a7.495 7.495 0 00-4.167-1.265v5zm-298.879 5.217c-6.228 4.086-3.334 13.77 4.115 13.77v-5c-2.483 0-3.448-3.228-1.372-4.59l-2.743-4.18zm296.943 1.293c.441 0 .875.117 1.257.339l2.516-4.321a7.5 7.5 0 00-3.773-1.018v5zm-280.504-6.1c.407-.267.884-.41 1.371-.41v-5a7.496 7.496 0 00-4.115 1.23l2.744 4.18z" fill="#D9D9D9"/><path d="M122.859 318.595a2.713 2.713 0 015.425 0v70.701c0 .952-.5 1.835-1.317 2.326-1.808 1.084-4.108-.218-4.108-2.326v-70.701zm299.453 0a2.712 2.712 0 10-5.424 0v70.701c0 .952.5 1.835 1.317 2.326 1.807 1.084 4.107-.218 4.107-2.326v-70.701zm-210.484 29.837a3.797 3.797 0 017.595 0v55.334a3.798 3.798 0 11-7.595 0v-55.334zm112.836 0a3.797 3.797 0 017.595 0v55.334a3.798 3.798 0 01-7.595 0v-55.334z" fill="#fff" stroke="#D9D9D9" stroke-width="5" stroke-linejoin="round"/><path fill-rule="evenodd" clip-rule="evenodd" d="M450.524 316a5 5 0 00-5-5H101.82a5 5 0 00-5 5v90.903a5 5 0 005 5h343.704a5 5 0 005-5V316zm-7.595 6.51a5 5 0 00-5-5H109.415a5 5 0 00-5 5v77.883a5 5 0 005 5h328.514a5 5 0 005-5V322.51z" fill="#fff"/><path d="M101.82 313.5h343.704v-5H101.82v5zm-2.5 93.403V316h-5v90.903h5zm346.204 2.5H101.82v5h343.704v-5zm2.5-93.403v90.903h5V316h-5zm-338.609 4.01h328.514v-5H109.415v5zm-2.5 80.383V322.51h-5v77.883h5zm331.014 2.5H109.415v5h328.514v-5zm2.5-80.383v77.883h5V322.51h-5zm-2.5 85.383a7.5 7.5 0 007.5-7.5h-5a2.5 2.5 0 01-2.5 2.5v5zm-336.014-7.5a7.5 7.5 0 007.5 7.5v-5a2.5 2.5 0 01-2.5-2.5h-5zm336.014-80.383a2.5 2.5 0 012.5 2.5h5a7.5 7.5 0 00-7.5-7.5v5zm-328.514-5a7.5 7.5 0 00-7.5 7.5h5a2.5 2.5 0 012.5-2.5v-5zm336.109 99.393a7.5 7.5 0 007.5-7.5h-5a2.5 2.5 0 01-2.5 2.5v5zm-351.204-7.5a7.5 7.5 0 007.5 7.5v-5a2.5 2.5 0 01-2.5-2.5h-5zM445.524 313.5a2.5 2.5 0 012.5 2.5h5a7.5 7.5 0 00-7.5-7.5v5zm-343.704-5a7.5 7.5 0 00-7.5 7.5h5a2.5 2.5 0 012.5-2.5v-5z" fill="#D9D9D9"/><path d="M479.33 147.492l-57.098-6.575a2 2 0 00-2.229 1.987v8.777a2 2 0 001.771 1.987l57.099 6.575a2 2 0 002.229-1.987v-8.777a2 2 0 00-1.772-1.987zm-412.65.932l58.1-9.389a2 2 0 012.319 1.974v8.753a2 2 0 01-1.681 1.974l-58.099 9.389A2 2 0 0165 159.151v-8.752a2 2 0 011.68-1.975z" fill="#fff" stroke="#D9D9D9" stroke-width="5" stroke-linejoin="round"/><path fill-rule="evenodd" clip-rule="evenodd" d="M118.733 202.818c-4.966 0-6.895-6.456-2.743-9.18l13.695-8.987a4.997 4.997 0 012.743-.82h281.069c.989 0 1.956.293 2.778.843l12.943 8.651.347.209c4.343 2.612 2.491 9.284-2.577 9.284H118.733zm11.91-11.451a4.997 4.997 0 013.035-1.026h277.883c.883 0 1.751.234 2.515.679l4.425 2.576.139.095c4.058 2.776 2.094 9.127-2.823 9.127H130.406c-4.938 0-6.781-6.469-2.681-9.222l2.918-2.229z" fill="#fff"/><path d="M429.218 193.325l-1.389 2.078.1.064 1.289-2.142zm-10.717.271l1.411-2.064a3.036 3.036 0 00-.153-.097l-1.258 2.161zm.139.095l1.412-2.063-1.412 2.063zm10.925-.157l-1.288 2.142 1.288-2.142zm-13.29-8.86l1.389-2.078-1.389 2.078zm-286.59-.023l1.372 2.09-1.372-2.09zm-1.372-2.09l-13.695 8.987 2.743 4.18 13.696-8.987-2.744-4.18zm285.184-1.23H132.428v5h281.069v-5zm17.11 9.915l-12.943-8.65-2.778 4.157 12.943 8.65 2.778-4.157zm.247.145l-.348-.209-2.577 4.285.348.209 2.577-4.285zm-312.121 13.927h308.255v-5H118.733v5zm292.828-17.477H133.678v5h277.883v-5zm8.198 3.594l-4.425-2.576-2.516 4.321 4.425 2.576 2.516-4.321zm.293.193l-.14-.096-2.823 4.127.14.096 2.823-4.127zm-289.646 13.69h285.411v-5H130.406v5zm-1.281-15.938l-2.918 2.229 3.035 3.974 2.918-2.229-3.035-3.974zm1.281 10.938c-2.298 0-3.48-3.174-1.288-4.647l-2.787-4.151c-6.006 4.034-3.504 13.798 4.075 13.798v-5zm286.823-4.563c2.029 1.388 1.046 4.563-1.412 4.563v5c7.375 0 10.321-9.527 4.235-13.69l-2.823 4.127zm-283.551-7.914a7.505 7.505 0 00-4.553 1.539l3.035 3.974a2.5 2.5 0 011.518-.513v-5zm294.599 7.835c2.171 1.306 1.245 4.642-1.289 4.642v5c7.602 0 10.38-10.008 3.866-13.927l-2.577 4.285zm-14.78-9.345a2.5 2.5 0 011.389.422l2.778-4.157a7.495 7.495 0 00-4.167-1.265v5zm-298.879 5.217c-6.228 4.086-3.334 13.77 4.115 13.77v-5c-2.483 0-3.448-3.228-1.372-4.59l-2.743-4.18zm296.943 1.293c.441 0 .875.117 1.257.339l2.516-4.321a7.5 7.5 0 00-3.773-1.018v5zm-280.504-6.1c.407-.267.884-.41 1.371-.41v-5a7.496 7.496 0 00-4.115 1.23l2.744 4.18z" fill="#D9D9D9"/><path d="M122.859 110.595a2.713 2.713 0 015.425 0v70.701c0 .952-.5 1.835-1.317 2.326-1.808 1.084-4.108-.218-4.108-2.326v-70.701zm299.453 0a2.712 2.712 0 10-5.424 0v70.701c0 .952.5 1.835 1.317 2.326 1.807 1.084 4.107-.218 4.107-2.326v-70.701zm-210.484 29.837a3.797 3.797 0 017.595 0v55.334a3.798 3.798 0 11-7.595 0v-55.334zm112.836 0a3.797 3.797 0 017.595 0v55.334a3.798 3.798 0 01-7.595 0v-55.334z" fill="#fff" stroke="#D9D9D9" stroke-width="5" stroke-linejoin="round"/><path fill-rule="evenodd" clip-rule="evenodd" d="M450.524 108a5 5 0 00-5-5H101.82a5 5 0 00-5 5v90.903a5 5 0 005 5h343.704a5 5 0 005-5V108zm-7.595 6.51a5 5 0 00-5-5H109.415a5 5 0 00-5 5v77.883a5 5 0 005 5h328.514a5 5 0 005-5V114.51z" fill="#fff"/><path d="M101.82 105.5h343.704v-5H101.82v5zm-2.5 93.403V108h-5v90.903h5zm346.204 2.5H101.82v5h343.704v-5zm2.5-93.403v90.903h5V108h-5zm-338.609 4.01h328.514v-5H109.415v5zm-2.5 80.383V114.51h-5v77.883h5zm331.014 2.5H109.415v5h328.514v-5zm2.5-80.383v77.883h5V114.51h-5zm-2.5 85.383a7.5 7.5 0 007.5-7.5h-5a2.5 2.5 0 01-2.5 2.5v5zm-336.014-7.5a7.5 7.5 0 007.5 7.5v-5a2.5 2.5 0 01-2.5-2.5h-5zm336.014-80.383a2.5 2.5 0 012.5 2.5h5a7.5 7.5 0 00-7.5-7.5v5zm-328.514-5a7.5 7.5 0 00-7.5 7.5h5a2.5 2.5 0 012.5-2.5v-5zm336.109 99.393a7.5 7.5 0 007.5-7.5h-5a2.5 2.5 0 01-2.5 2.5v5zm-351.204-7.5a7.5 7.5 0 007.5 7.5v-5a2.5 2.5 0 01-2.5-2.5h-5zM445.524 105.5a2.5 2.5 0 012.5 2.5h5a7.5 7.5 0 00-7.5-7.5v5zm-343.704-5a7.5 7.5 0 00-7.5 7.5h5a2.5 2.5 0 012.5-2.5v-5z" fill="#D9D9D9"/><rect x="3" y="579" width="539" height="28" rx="5" fill="#fff" stroke="#D9D9D9" stroke-width="5" stroke-linejoin="round"/><path d="M47.035 453.852L5.32 573.352C4.186 576.602 6.599 580 10.04 580h525.067c3.4 0 5.808-3.32 4.754-6.551l-39.006-119.5a5 5 0 00-4.753-3.449H51.755a5 5 0 00-4.72 3.352z" fill="#fff" stroke="#D9D9D9" stroke-width="5" stroke-linejoin="round"/><path d="M63.63 453.808l-37.223 103.5c-1.172 3.258 1.242 6.692 4.705 6.692h176.761a5 5 0 004.863-3.837l3.438-14.373a5 5 0 014.863-3.837h106.747a5 5 0 014.916 4.085l2.581 13.877a5 5 0 004.916 4.085h172.846c3.419 0 5.829-3.354 4.74-6.594l-34.806-103.5a5 5 0 00-4.739-3.406H68.335a5 5 0 00-4.705 3.308z" fill="#fff" stroke="#D9D9D9" stroke-width="5" stroke-linejoin="round"/><path d="M220.353 558.915l1.335-6a4.998 4.998 0 014.88-3.915H265a5 5 0 015 5v6a5 5 0 01-5 5h-39.766c-3.199 0-5.575-2.963-4.881-6.085zm107.325.02l-1.308-6a5.001 5.001 0 00-4.886-3.935H284a5 5 0 00-5 5v6a5 5 0 005 5h38.792c3.191 0 5.565-2.948 4.886-6.065z" fill="#fff" stroke="#D9D9D9" stroke-width="5" stroke-linejoin="round"/></svg>

<svg width="545" height="610" viewBox="0 0 545 610" fill="none" xmlns="http://www.w3.org/2000/svg">
<rect x="48" y="3" width="450" height="451" rx="5" fill="white" stroke="#D9D9D9" stroke-width="5" stroke-linejoin="round"/>
<path d="M477 23H71C68.2386 23 66 25.2386 66 28V446C66 448.761 68.2386 451 71 451H477C479.761 451 482 448.761 482 446V28C482 25.2386 479.761 23 477 23Z" fill="white" stroke="#D9D9D9" stroke-width="5" stroke-linejoin="round"/>
<path d="M479.972 377.65L422.873 350.048C421.545 349.406 420.003 350.373 420.003 351.848V360.21C420.003 360.977 420.442 361.676 421.132 362.01L478.231 389.612C479.559 390.254 481.102 389.287 481.102 387.812V379.45C481.102 378.683 480.663 377.984 479.972 377.65Z" fill="white" stroke="#D9D9D9" stroke-width="5" stroke-linejoin="round"/>
<path d="M66.2394 371.686L124.338 347.795C125.654 347.254 127.099 348.222 127.099 349.645V358.124C127.099 358.935 126.609 359.666 125.859 359.974L67.7606 383.865C66.4444 384.406 65 383.438 65 382.015V373.536C65 372.725 65.4895 371.995 66.2394 371.686Z" fill="white" stroke="#D9D9D9" stroke-width="5" stroke-linejoin="round"/>
<path fill-rule="evenodd" clip-rule="evenodd" d="M118.733 410.818C113.767 410.818 111.838 404.362 115.99 401.638L129.685 392.651C130.5 392.116 131.453 391.831 132.428 391.831H413.497C414.486 391.831 415.453 392.124 416.275 392.674L429.218 401.325L429.565 401.534C433.908 404.146 432.056 410.818 426.988 410.818H118.733ZM130.643 399.367C131.514 398.701 132.581 398.341 133.678 398.341H411.561C412.444 398.341 413.312 398.575 414.076 399.02L418.501 401.596L418.64 401.691C422.698 404.467 420.734 410.818 415.817 410.818H130.406C125.468 410.818 123.625 404.349 127.725 401.596L130.643 399.367Z" fill="white"/>
<path d="M429.218 401.325L427.829 403.403C427.862 403.425 427.895 403.446 427.929 403.467L429.218 401.325ZM418.501 401.596L419.912 399.532C419.862 399.498 419.811 399.466 419.759 399.435L418.501 401.596ZM418.64 401.691L420.052 399.628L418.64 401.691ZM429.565 401.534L428.277 403.676L429.565 401.534ZM416.275 392.674L417.664 390.596L416.275 392.674ZM129.685 392.651L131.057 394.741L129.685 392.651ZM128.313 390.561L114.618 399.548L117.361 403.728L131.057 394.741L128.313 390.561ZM413.497 389.331H132.428V394.331H413.497V389.331ZM430.607 399.246L417.664 390.596L414.886 394.753L427.829 403.403L430.607 399.246ZM430.854 399.391L430.506 399.182L427.929 403.467L428.277 403.676L430.854 399.391ZM118.733 413.318H426.988V408.318H118.733V413.318ZM411.561 395.841H133.678V400.841H411.561V395.841ZM419.759 399.435L415.334 396.859L412.818 401.18L417.243 403.756L419.759 399.435ZM420.052 399.628L419.912 399.532L417.089 403.659L417.229 403.755L420.052 399.628ZM130.406 413.318H415.817V408.318H130.406V413.318ZM129.125 397.38L126.207 399.609L129.242 403.583L132.16 401.354L129.125 397.38ZM130.406 408.318C128.108 408.318 126.926 405.144 129.118 403.671L126.331 399.52C120.325 403.554 122.827 413.318 130.406 413.318V408.318ZM417.229 403.755C419.258 405.143 418.275 408.318 415.817 408.318V413.318C423.192 413.318 426.138 403.791 420.052 399.628L417.229 403.755ZM133.678 395.841C132.032 395.841 130.433 396.382 129.125 397.38L132.16 401.354C132.596 401.021 133.129 400.841 133.678 400.841V395.841ZM428.277 403.676C430.448 404.982 429.522 408.318 426.988 408.318V413.318C434.59 413.318 437.368 403.31 430.854 399.391L428.277 403.676ZM413.497 394.331C413.991 394.331 414.475 394.478 414.886 394.753L417.664 390.596C416.431 389.771 414.98 389.331 413.497 389.331V394.331ZM114.618 399.548C108.39 403.634 111.284 413.318 118.733 413.318V408.318C116.25 408.318 115.285 405.09 117.361 403.728L114.618 399.548ZM411.561 400.841C412.002 400.841 412.436 400.958 412.818 401.18L415.334 396.859C414.188 396.192 412.886 395.841 411.561 395.841V400.841ZM131.057 394.741C131.464 394.474 131.941 394.331 132.428 394.331V389.331C130.966 389.331 129.536 389.758 128.313 390.561L131.057 394.741Z" fill="#D9D9D9"/>
<path d="M122.859 318.595C122.859 317.097 124.074 315.883 125.572 315.883C127.07 315.883 128.284 317.097 128.284 318.595V389.296C128.284 390.248 127.784 391.131 126.967 391.622C125.159 392.706 122.859 391.404 122.859 389.296V318.595Z" fill="white" stroke="#D9D9D9" stroke-width="5" stroke-linejoin="round"/>
<path d="M422.312 318.595C422.312 317.097 421.098 315.883 419.6 315.883C418.102 315.883 416.888 317.097 416.888 318.595V389.296C416.888 390.248 417.388 391.131 418.205 391.622C420.012 392.706 422.312 391.404 422.312 389.296V318.595Z" fill="white" stroke="#D9D9D9" stroke-width="5" stroke-linejoin="round"/>
<path d="M211.828 348.432C211.828 346.335 213.528 344.635 215.626 344.635C217.723 344.635 219.423 346.335 219.423 348.432V403.766C219.423 405.863 217.723 407.564 215.626 407.564C213.528 407.564 211.828 405.863 211.828 403.766V348.432Z" fill="white" stroke="#D9D9D9" stroke-width="5" stroke-linejoin="round"/>
<path d="M324.664 348.432C324.664 346.335 326.364 344.635 328.461 344.635C330.559 344.635 332.259 346.335 332.259 348.432V403.766C332.259 405.863 330.559 407.564 328.461 407.564C326.364 407.564 324.664 405.863 324.664 403.766V348.432Z" fill="white" stroke="#D9D9D9" stroke-width="5" stroke-linejoin="round"/>
<path fill-rule="evenodd" clip-rule="evenodd" d="M450.524 316C450.524 313.239 448.285 311 445.524 311H101.82C99.0589 311 96.8203 313.239 96.8203 316V406.903C96.8203 409.665 99.0589 411.903 101.82 411.903H445.524C448.285 411.903 450.524 409.665 450.524 406.903V316ZM442.929 322.51C442.929 319.748 440.69 317.51 437.929 317.51H109.415C106.654 317.51 104.415 319.749 104.415 322.51V400.393C104.415 403.155 106.654 405.393 109.415 405.393H437.929C440.69 405.393 442.929 403.155 442.929 400.393V322.51Z" fill="white"/>
<path d="M101.82 313.5H445.524V308.5H101.82V313.5ZM99.3203 406.903V316H94.3203V406.903H99.3203ZM445.524 409.403H101.82V414.403H445.524V409.403ZM448.024 316V406.903H453.024V316H448.024ZM109.415 320.01H437.929V315.01H109.415V320.01ZM106.915 400.393V322.51H101.915V400.393H106.915ZM437.929 402.893H109.415V407.893H437.929V402.893ZM440.429 322.51V400.393H445.429V322.51H440.429ZM437.929 407.893C442.071 407.893 445.429 404.535 445.429 400.393H440.429C440.429 401.774 439.31 402.893 437.929 402.893V407.893ZM101.915 400.393C101.915 404.535 105.273 407.893 109.415 407.893V402.893C108.034 402.893 106.915 401.774 106.915 400.393H101.915ZM437.929 320.01C439.31 320.01 440.429 321.129 440.429 322.51H445.429C445.429 318.368 442.071 315.01 437.929 315.01V320.01ZM109.415 315.01C105.273 315.01 101.915 318.368 101.915 322.51H106.915C106.915 321.129 108.034 320.01 109.415 320.01V315.01ZM445.524 414.403C449.666 414.403 453.024 411.045 453.024 406.903H448.024C448.024 408.284 446.905 409.403 445.524 409.403V414.403ZM94.3203 406.903C94.3203 411.045 97.6782 414.403 101.82 414.403V409.403C100.44 409.403 99.3203 408.284 99.3203 406.903H94.3203ZM445.524 313.5C446.905 313.5 448.024 314.619 448.024 316H453.024C453.024 311.858 449.666 308.5 445.524 308.5V313.5ZM101.82 308.5C97.6782 308.5 94.3203 311.858 94.3203 316H99.3203C99.3203 314.619 100.44 313.5 101.82 313.5V308.5Z" fill="#D9D9D9"/>
<path d="M479.33 147.492L422.232 140.917C421.044 140.78 420.003 141.708 420.003 142.904V151.681C420.003 152.697 420.765 153.552 421.774 153.668L478.873 160.243C480.06 160.38 481.102 159.452 481.102 158.256V149.479C481.102 148.463 480.34 147.608 479.33 147.492Z" fill="white" stroke="#D9D9D9" stroke-width="5" stroke-linejoin="round"/>
<path d="M66.6809 148.424L124.78 139.035C125.996 138.838 127.099 139.777 127.099 141.009V149.762C127.099 150.743 126.387 151.579 125.418 151.736L67.3191 161.125C66.103 161.322 65 160.383 65 159.151V150.399C65 149.417 65.7121 148.581 66.6809 148.424Z" fill="white" stroke="#D9D9D9" stroke-width="5" stroke-linejoin="round"/>
<path fill-rule="evenodd" clip-rule="evenodd" d="M118.733 202.818C113.767 202.818 111.838 196.362 115.99 193.638L129.685 184.651C130.5 184.116 131.453 183.831 132.428 183.831H413.497C414.486 183.831 415.453 184.124 416.275 184.674L429.218 193.325L429.565 193.534C433.908 196.146 432.056 202.818 426.988 202.818H118.733ZM130.643 191.367C131.514 190.701 132.581 190.341 133.678 190.341H411.561C412.444 190.341 413.312 190.575 414.076 191.02L418.501 193.596L418.64 193.691C422.698 196.467 420.734 202.818 415.817 202.818H130.406C125.468 202.818 123.625 196.349 127.725 193.596L130.643 191.367Z" fill="white"/>
<path d="M429.218 193.325L427.829 195.403C427.862 195.425 427.895 195.446 427.929 195.467L429.218 193.325ZM418.501 193.596L419.912 191.532C419.862 191.498 419.811 191.466 419.759 191.435L418.501 193.596ZM418.64 193.691L420.052 191.628L418.64 193.691ZM429.565 193.534L428.277 195.676L429.565 193.534ZM416.275 184.674L417.664 182.596L416.275 184.674ZM129.685 184.651L131.057 186.741L129.685 184.651ZM128.313 182.561L114.618 191.548L117.361 195.728L131.057 186.741L128.313 182.561ZM413.497 181.331H132.428V186.331H413.497V181.331ZM430.607 191.246L417.664 182.596L414.886 186.753L427.829 195.403L430.607 191.246ZM430.854 191.391L430.506 191.182L427.929 195.467L428.277 195.676L430.854 191.391ZM118.733 205.318H426.988V200.318H118.733V205.318ZM411.561 187.841H133.678V192.841H411.561V187.841ZM419.759 191.435L415.334 188.859L412.818 193.18L417.243 195.756L419.759 191.435ZM420.052 191.628L419.912 191.532L417.089 195.659L417.229 195.755L420.052 191.628ZM130.406 205.318H415.817V200.318H130.406V205.318ZM129.125 189.38L126.207 191.609L129.242 195.583L132.16 193.354L129.125 189.38ZM130.406 200.318C128.108 200.318 126.926 197.144 129.118 195.671L126.331 191.52C120.325 195.554 122.827 205.318 130.406 205.318V200.318ZM417.229 195.755C419.258 197.143 418.275 200.318 415.817 200.318V205.318C423.192 205.318 426.138 195.791 420.052 191.628L417.229 195.755ZM133.678 187.841C132.032 187.841 130.433 188.382 129.125 189.38L132.16 193.354C132.596 193.021 133.129 192.841 133.678 192.841V187.841ZM428.277 195.676C430.448 196.982 429.522 200.318 426.988 200.318V205.318C434.59 205.318 437.368 195.31 430.854 191.391L428.277 195.676ZM413.497 186.331C413.991 186.331 414.475 186.478 414.886 186.753L417.664 182.596C416.431 181.771 414.98 181.331 413.497 181.331V186.331ZM114.618 191.548C108.39 195.634 111.284 205.318 118.733 205.318V200.318C116.25 200.318 115.285 197.09 117.361 195.728L114.618 191.548ZM411.561 192.841C412.002 192.841 412.436 192.958 412.818 193.18L415.334 188.859C414.188 188.192 412.886 187.841 411.561 187.841V192.841ZM131.057 186.741C131.464 186.474 131.941 186.331 132.428 186.331V181.331C130.966 181.331 129.536 181.758 128.313 182.561L131.057 186.741Z" fill="#D9D9D9"/>
<path d="M122.859 110.595C122.859 109.097 124.074 107.883 125.572 107.883C127.07 107.883 128.284 109.097 128.284 110.595V181.296C128.284 182.248 127.784 183.131 126.967 183.622C125.159 184.706 122.859 183.404 122.859 181.296V110.595Z" fill="white" stroke="#D9D9D9" stroke-width="5" stroke-linejoin="round"/>
<path d="M422.312 110.595C422.312 109.097 421.098 107.883 419.6 107.883C418.102 107.883 416.888 109.097 416.888 110.595V181.296C416.888 182.248 417.388 183.131 418.205 183.622C420.012 184.706 422.312 183.404 422.312 181.296V110.595Z" fill="white" stroke="#D9D9D9" stroke-width="5" stroke-linejoin="round"/>
<path d="M211.828 140.432C211.828 138.335 213.528 136.635 215.626 136.635C217.723 136.635 219.423 138.335 219.423 140.432V195.766C219.423 197.863 217.723 199.564 215.626 199.564C213.528 199.564 211.828 197.863 211.828 195.766V140.432Z" fill="white" stroke="#D9D9D9" stroke-width="5" stroke-linejoin="round"/>
<path d="M324.664 140.432C324.664 138.335 326.364 136.635 328.461 136.635C330.559 136.635 332.259 138.335 332.259 140.432V195.766C332.259 197.863 330.559 199.564 328.461 199.564C326.364 199.564 324.664 197.863 324.664 195.766V140.432Z" fill="white" stroke="#D9D9D9" stroke-width="5" stroke-linejoin="round"/>
<path fill-rule="evenodd" clip-rule="evenodd" d="M450.524 108C450.524 105.239 448.285 103 445.524 103H101.82C99.0589 103 96.8203 105.239 96.8203 108V198.903C96.8203 201.665 99.0589 203.903 101.82 203.903H445.524C448.285 203.903 450.524 201.665 450.524 198.903V108ZM442.929 114.51C442.929 111.748 440.69 109.51 437.929 109.51H109.415C106.654 109.51 104.415 111.749 104.415 114.51V192.393C104.415 195.155 106.654 197.393 109.415 197.393H437.929C440.69 197.393 442.929 195.155 442.929 192.393V114.51Z" fill="white"/>
<path d="M101.82 105.5H445.524V100.5H101.82V105.5ZM99.3203 198.903V108H94.3203V198.903H99.3203ZM445.524 201.403H101.82V206.403H445.524V201.403ZM448.024 108V198.903H453.024V108H448.024ZM109.415 112.01H437.929V107.01H109.415V112.01ZM106.915 192.393V114.51H101.915V192.393H106.915ZM437.929 194.893H109.415V199.893H437.929V194.893ZM440.429 114.51V192.393H445.429V114.51H440.429ZM437.929 199.893C442.071 199.893 445.429 196.535 445.429 192.393H440.429C440.429 193.774 439.31 194.893 437.929 194.893V199.893ZM101.915 192.393C101.915 196.535 105.273 199.893 109.415 199.893V194.893C108.034 194.893 106.915 193.774 106.915 192.393H101.915ZM437.929 112.01C439.31 112.01 440.429 113.129 440.429 114.51H445.429C445.429 110.368 442.071 107.01 437.929 107.01V112.01ZM109.415 107.01C105.273 107.01 101.915 110.368 101.915 114.51H106.915C106.915 113.129 108.034 112.01 109.415 112.01V107.01ZM445.524 206.403C449.666 206.403 453.024 203.045 453.024 198.903H448.024C448.024 200.284 446.905 201.403 445.524 201.403V206.403ZM94.3203 198.903C94.3203 203.045 97.6782 206.403 101.82 206.403V201.403C100.44 201.403 99.3203 200.284 99.3203 198.903H94.3203ZM445.524 105.5C446.905 105.5 448.024 106.619 448.024 108H453.024C453.024 103.858 449.666 100.5 445.524 100.5V105.5ZM101.82 100.5C97.6782 100.5 94.3203 103.858 94.3203 108H99.3203C99.3203 106.619 100.44 105.5 101.82 105.5V100.5Z" fill="#D9D9D9"/>
<rect x="3" y="579" width="539" height="28" rx="5" fill="white" stroke="#D9D9D9" stroke-width="5" stroke-linejoin="round"/>
<path d="M47.0347 453.852L5.32058 573.352C4.18604 576.602 6.59876 580 10.0413 580H535.108C538.508 580 540.916 576.68 539.862 573.449L500.856 453.949C500.185 451.892 498.267 450.5 496.103 450.5H51.7553C49.6291 450.5 47.7354 451.845 47.0347 453.852Z" fill="white" stroke="#D9D9D9" stroke-width="5" stroke-linejoin="round"/>
<path d="M63.6296 453.808L26.4068 557.308C25.235 560.566 27.6494 564 31.1117 564H207.873C210.187 564 212.198 562.413 212.736 560.163L216.174 545.79C216.712 543.54 218.724 541.953 221.037 541.953H327.784C330.193 541.953 332.259 543.67 332.7 546.038L335.281 559.915C335.722 562.283 337.788 564 340.197 564H513.043C516.462 564 518.872 560.646 517.783 557.406L482.977 453.906C482.292 451.871 480.385 450.5 478.238 450.5H68.3346C66.2256 450.5 64.3433 451.823 63.6296 453.808Z" fill="white" stroke="#D9D9D9" stroke-width="5" stroke-linejoin="round"/>
<path d="M220.353 558.915L221.688 552.915C222.196 550.627 224.225 549 226.568 549H265C267.761 549 270 551.239 270 554V560C270 562.761 267.761 565 265 565H225.234C222.035 565 219.659 562.037 220.353 558.915Z" fill="white" stroke="#D9D9D9" stroke-width="5" stroke-linejoin="round"/>
<path d="M327.678 558.935L326.37 552.935C325.869 550.638 323.835 549 321.484 549H284C281.239 549 279 551.239 279 554V560C279 562.761 281.239 565 284 565H322.792C325.983 565 328.357 562.052 327.678 558.935Z" fill="white" stroke="#D9D9D9" stroke-width="5" stroke-linejoin="round"/>
</svg>
